svgs/sharp-solid/skeleton.svg

<svg xmlns="http://www.w3.org/2000/svg" viewBox="0 0 512 512"><!--! Font Awesome Pro 6.6.0 by @fontawesome - https://fontawesome.com License - https://fontawesome.com/license (Commercial License) Copyright 2024 Fonticons, Inc. --><path d="M288 0l0 32 0 32 128 0 32 0 0 64-32 0-128 0 0 32 192 0 32 0 0 64-32 0-192 0 0 32 96 0 32 0 0 64-32 0-96 0 0 64 0 2.3L368 352l80 0 0 96-64 64-256 0L64 448l0-96 80 0 80 34.3 0-2.3 0-64-96 0-32 0 0-64 32 0 96 0 0-32L32 224 0 224l0-64 32 0 192 0 0-32L96 128l-32 0 0-64 32 0 128 0 0-32 0-32 64 0zM184 440a24 24 0 1 0 -48 0 24 24 0 1 0 48 0zm192 0a24 24 0 1 0 -48 0 24 24 0 1 0 48 0z"/></svg>

<svg xmlns="http://www.w3.org/2000/svg" viewBox="0 0 512 512"><!--! Font Awesome Pro 6.5.2 by @fontawesome - https://fontawesome.com License - https://fontawesome.com/license (Commercial License) Copyright 2024 Fonticons, Inc. --><path d="M288 0V32 64H416h32v64H416 288v32H480h32v64H480 288v32h96 32v64H384 288v64 2.3L368 352h80v96l-64 64H128L64 448V352h80l80 34.3V384 320H128 96V256h32 96V224H32 0V160H32 224V128H96 64V64H96 224V32 0h64zM184 440a24 24 0 1 0 -48 0 24 24 0 1 0 48 0zm192 0a24 24 0 1 0 -48 0 24 24 0 1 0 48 0z"/></svg>
